X:0755
T:Mrs. Leitch's Strathspey.
M:C
L:1/8
Q:1/4=120
N:Aird uses a dal segno
I: S || || S
N:bar 11 is printed |afdf afc'f| (the c' must be wrong)
N:fermata must mean "Fine"
Z:Jack Campin * www.campin.me.uk * 2009
K:D
A>B||A<FA>B A<FA>B|A<F D>f      e>dBd     |A>FA>B Acdg |f>aBg Ac dc/B/    |
     A>FA>B A<FA>B|A<F E>f      e>dBd     |A<FA>B Acdg |faBg  AcHd       |]
f/g/|afdf   afbf  |g>b g/f/e/d/ ce e(f/g/)|afdf   afd'f|gbeg  Ad d(f/g/)  |
     afdf   afbf  |g>b g/f/e/d/ c(ee)g    |faBd   cefg |fbeg  Ac e/d/c/B/||
% segno repeat
     A<FA>B A<FA>B|A<F D>f      e>dBd     |A>FA>B Acdg |f>aBg Ac dc/B/    |
     A>FA>B A<FA>B|A<F E>f      e>dBd     |A<FA>B Acdg |faBg  Acd        |]

